X: 4522
T: Booth Shot Lincoln
R: polka
M: 2/4
K: Amajor
|:"A"E/D/E/F/ EE/F/|"D"AA/B/ AA/B/|"A"c/B/c/B/ c/B/A|"F#m"(F2 F)F|
"A"E/D/E/F/ EE/F/|"D"A/F/A/B/ Af|"A"ec "E"B/c/B|1 "A"A2 F2:|2 "A"(A2 A)B||
|:"A"c(e e)e|"D"f(a a)f|"A"ec B/c/B/A/|"F#m"F2 FB|
[1 "A"c(e e)e|"D"(f a) af|"A"ec "E"B/c/B|"A"A2 AB:|
[2 "A"E/D/E/F/ E E/F/|"D"A/F/A/B/ Af|"A"ec "E" B/c/B|"A"A4||

